X: 15431
T: Glen Farquhar
R: strathspey
M: 4/4
K: Dmajor
A,|D2 D>E F>D A>F|d2d2 A>D F<D|A,3E C>A, E<C|A,>A ^G<A E>A, C>A,|
D2 D>E F>D A>F|d2d2 A>D F<D|(3EFG (3ABc (3def (3edc|(3dcB (3AGF F<D D>A|
d2d>f a>d f<d|g<b f<a g>e f<d|A3c e>A c<A|d<f c<e d>B c<A|
d2d>f a>d f<d|g<b f<a g>e a>f|(3gfe (3fed (3edc (3dcB|(3cBA (3GFE F<D D||

